T: Lucy Farr's
M: 4/4
L: 1/8
K: Dmaj
d2 d2 d2 d2 | c>de>c A2 A2 | e2 e2 e2 e2 | d>ef>d A3 f |g>fg>e c2 g2 | f>=f^f>d A2 f2 | e>de>c A>ce>f | e2 d2 d3 |]d2 d2 d2 d2 | c>de>c A2 A2 | e2 e2 e2 e2 | d>ef>d A3 ||g>fg>e c2 g2 | f>^ef>d A2 f2 | e>de>c A>ce>f | e2 d2 d3 :|
